src/icons/linkedin.svg

<?xml version="1.0" encoding="UTF-8" standalone="no"?>
<svg width="58px" height="57px" viewBox="0 0 58 57" version="1.1" xmlns="http://www.w3.org/2000/svg" xmlns:xlink="http://www.w3.org/1999/xlink">
  <defs></defs>
  <g stroke="none" stroke-width="1" fill="none" fill-rule="evenodd">
    <g transform="translate(-1201.000000, -377.000000)" fill="#007AAA">
      <g id="10--Linkedin--(social,-media,-communication,-flat)" transform="translate(1201.000000, 376.000000)">
        <path
          d="M7.0571,0.9831 C10.8921,0.9861 14.0551,4.1541 14.0471,8.0081 C14.0381,12.0441 10.6891,15.0861 7.0101,14.9981 C3.2781,15.0741 -0.0009,11.9571 0.0001,7.9811 C0.0001,4.1261 3.1751,0.9801 7.0571,0.9831"
          id="Fill-64"></path>
        <path
          d="M11,57.9918 L3,57.9918 C1.934,57.9918 1,57.0668 1,55.9998 L1,21.0068 C1,19.9398 1.848,18.9998 2.915,18.9998 L11,18.9998 C12.066,18.9998 13,19.9338 13,20.9998 L13,56.0608 C13,57.1268 12.066,57.9918 11,57.9918"
          id="Fill-65"></path>
        <path
          d="M58.0004,31.1899 C58.0004,23.8409 52.4794,17.9999 45.1294,17.9999 L43.0224,17.9999 C39.0014,17.9999 35.1364,19.9339 33.0004,22.9999 C32.2914,23.7089 32.0004,23.9999 32.0004,23.9999 L32.0004,19.9999 C32.0004,19.5579 31.4434,18.9999 31.0004,18.9999 L21.0004,18.9999 C20.5574,18.9999 20.0004,19.4339 20.0004,19.8769 L20.0004,57.1909 C20.0004,57.6329 20.5574,57.9919 21.0004,57.9919 L32.0004,57.9949 C32.4434,57.9949 33.0004,57.6359 33.0004,57.1929 L33.0004,35.6359 C33.0004,31.9099 35.7514,28.8159 39.4774,28.7739 C41.3794,28.7519 43.1044,29.5149 44.3464,30.7579 C45.5734,31.9839 46.0004,33.6789 46.0004,35.5499 L46.0004,56.9999 C46.0004,57.4429 46.5574,57.9999 47.0004,57.9999 L57.0004,57.9999 C57.4434,57.9999 58.0004,57.4429 58.0004,56.9999 L58.0004,31.1899 L58.0004,31.1899 Z"
          id="Fill-66"></path>
      </g>
    </g>
  </g>
</svg>

<svg height="57" viewBox="0 0 58 57" width="58" xmlns="http://www.w3.org/2000/svg"><g fill="#007aaa" fill-rule="evenodd" transform="translate(0 -1)"><path d="m7.0571.9831c3.835.003 6.998 3.171 6.99 7.025-.009 4.036-3.358 7.078-7.037 6.99-3.732.076-7.011-3.041-7.01-7.017 0-3.855 3.175-7.001 7.057-6.998"/><path d="m11 57.9918h-8c-1.066 0-2-.925-2-1.992v-34.993c0-1.067.848-2.007 1.915-2.007h8.085c1.066 0 2 .934 2 2v35.061c0 1.066-.934 1.931-2 1.931"/><path d="m58.0004 31.1899c0-7.349-5.521-13.19-12.871-13.19h-2.107c-4.021 0-7.886 1.934-10.022 5-.709.709-1 1-1 1v-4c0-.442-.557-1-1-1h-10c-.443 0-1 .434-1 .877v37.314c0 .442.557.801 1 .801l11 .003c.443 0 1-.359 1-.802v-21.557c0-3.726 2.751-6.82 6.477-6.862 1.902-.022 3.627.741 4.869 1.984 1.227 1.226 1.654 2.921 1.654 4.792v21.45c0 .443.557 1 1 1h10c.443 0 1-.557 1-1z"/></g></svg>
